lib/brands/logos/nvidia.svg

<svg xmlns="http://www.w3.org/2000/svg" fill="none" aria-hidden="true" viewBox="0 0 125 94"><g id="nvidia"><g id="Group"><path id="Vector" fill="black" d="M121.046 87.8271C121.046 89.1013 120.111 89.9564 119.003 89.9564V89.9486C117.864 89.9564 116.946 89.1012 116.946 87.8275C116.946 86.554 117.864 85.7012 119.003 85.7012C120.111 85.7009 121.046 86.5537 121.046 87.8271V87.8271ZM121.875 87.8271C121.875 86.0783 120.517 85.0633 119.003 85.0633C117.479 85.0633 116.121 86.0783 116.121 87.8271C116.121 89.5746 117.479 90.5937 119.003 90.5937C120.517 90.5937 121.875 89.5746 121.875 87.8271ZM118.527 88.0609H118.834L119.547 89.3121H120.329L119.54 88.0082C119.947 87.9792 120.283 87.7852 120.283 87.2362C120.283 86.5537 119.812 86.3347 119.016 86.3347H117.863V89.3121H118.526L118.527 88.0609ZM118.527 87.5568V86.8402H118.988C119.238 86.8402 119.58 86.8605 119.58 87.1662C119.58 87.4987 119.403 87.5568 119.107 87.5568H118.527V87.5568ZM102.534 72.595L106.115 82.3907H98.8426L102.534 72.595V72.595ZM98.6994 68.7807L90.4474 89.6885H96.2741L97.5793 85.9938H107.345L108.58 89.6885H114.906L106.593 68.778L98.6994 68.7807ZM82.1323 89.6963H88.0441V68.7743L82.1313 68.7729L82.1323 89.6963ZM41.0915 68.7729L36.1592 85.3552L31.4343 68.7743L25.0555 68.7729L31.8036 89.6963H40.3204L47.1229 68.7729H41.0915ZM64.9878 73.3289H67.5289C71.2148 73.3289 73.5992 74.9838 73.5992 79.2785C73.5992 83.5739 71.2148 85.2292 67.5289 85.2292H64.9878V73.3289V73.3289ZM59.1256 68.7729V89.6963H68.7095C73.8158 89.6963 75.4836 88.8475 77.2865 86.9436C78.5599 85.6066 79.3837 82.6721 79.3837 79.465C79.3837 76.5231 78.6866 73.9005 77.4713 72.2666C75.2819 69.3446 72.1274 68.7729 67.4195 68.7729H59.1256V68.7729ZM3.125 68.7439V89.6963H9.08683V73.787L13.7063 73.7884C15.2358 73.7884 16.3262 74.1698 17.0627 74.9564C17.997 75.9514 18.3784 77.5577 18.3784 80.4962V89.6963H24.1554V78.1199C24.1554 69.8578 18.8893 68.7439 13.7367 68.7439H3.125V68.7439ZM49.611 68.7729L49.6134 89.6963H55.5225V68.7729H49.611Z"/><path id="Vector_2" fill="#77B900" d="M19.0126 27.1124C19.0126 27.1124 26.6162 15.8939 41.798 14.7333V10.6633C24.9822 12.0138 10.4204 26.2559 10.4204 26.2559C10.4204 26.2559 18.668 50.0978 41.798 52.2812V47.955C24.8241 45.8196 19.0126 27.1124 19.0126 27.1124V27.1124ZM41.798 39.3513V43.3136C28.9695 41.0262 25.4086 27.6912 25.4086 27.6912C25.4086 27.6912 31.5681 20.8678 41.798 19.7613V24.1087C41.7902 24.1087 41.7848 24.1064 41.7784 24.1064C36.4092 23.462 32.2148 28.4778 32.2148 28.4778C32.2148 28.4778 34.5657 36.9213 41.798 39.3513ZM41.798 3.15634V10.6633C42.2916 10.6254 42.7852 10.5933 43.2816 10.5764C62.3993 9.93211 74.8558 26.2559 74.8558 26.2559C74.8558 26.2559 60.5491 43.6525 45.644 43.6525C44.278 43.6525 42.9991 43.5258 41.798 43.3129V47.955C42.8603 48.0915 43.9303 48.1606 45.0014 48.1618C58.8715 48.1618 68.9021 41.0782 78.6146 32.6945C80.225 33.9842 86.8176 37.1217 88.1728 38.4948C78.938 46.2268 57.4156 52.4592 45.2139 52.4592C44.0377 52.4592 42.9082 52.388 41.798 52.2809V58.8039H94.5175V3.15634H41.798ZM41.798 19.7609V14.7337C42.2865 14.6995 42.7788 14.6732 43.2816 14.6573C57.0291 14.2255 66.0484 26.4712 66.0484 26.4712C66.0484 26.4712 56.3067 40.0004 45.8616 40.0004C44.3584 40.0004 43.0106 39.7588 41.7976 39.351V24.1084C47.1496 24.7551 48.2267 27.1192 51.4443 32.483L58.6009 26.4489C58.6009 26.4489 53.377 19.5977 44.5709 19.5977C43.6134 19.5974 42.6974 19.6646 41.798 19.7609"/></g></g></svg>

<svg xmlns="http://www.w3.org/2000/svg" fill="none" aria-hidden="true" viewBox="0 0 125 94"><path fill="#000" d="M121.046 87.827c0 1.274-.935 2.13-2.043 2.13v-.008c-1.139.007-2.057-.848-2.057-2.121 0-1.274.918-2.127 2.057-2.127 1.108 0 2.043.853 2.043 2.126Zm.829 0c0-1.749-1.358-2.764-2.872-2.764-1.524 0-2.882 1.015-2.882 2.764 0 1.748 1.358 2.767 2.882 2.767 1.514 0 2.872-1.02 2.872-2.767Zm-3.348.234h.307l.713 1.251h.782l-.789-1.304c.407-.029.743-.223.743-.772 0-.682-.471-.901-1.267-.901h-1.153v2.977h.663l.001-1.251Zm0-.504v-.717h.461c.25 0 .592.02.592.326 0 .333-.177.39-.473.39h-.58Zm-15.993-14.962 3.581 9.796h-7.272l3.691-9.796Zm-3.835-3.814-8.252 20.907h5.827l1.305-3.694h9.766l1.235 3.695h6.326l-8.313-20.911-7.894.003ZM82.132 89.696h5.912V68.774l-5.913-.001.001 20.923Zm-41.04-20.923-4.933 16.582-4.725-16.58-6.379-.002 6.749 20.923h8.516l6.803-20.923h-6.031Zm23.896 4.556h2.54c3.687 0 6.071 1.655 6.071 5.95s-2.384 5.95-6.07 5.95h-2.541v-11.9Zm-5.862-4.556v20.923h9.584c5.106 0 6.774-.849 8.577-2.752 1.273-1.337 2.097-4.272 2.097-7.479 0-2.942-.697-5.564-1.913-7.198-2.19-2.922-5.344-3.494-10.052-3.494h-8.293Zm-56.001-.03v20.953h5.962V73.787l4.62.001c1.529 0 2.62.382 3.356 1.168.934.995 1.315 2.602 1.315 5.54v9.2h5.777V78.12c0-8.262-5.266-9.376-10.418-9.376H3.125Zm46.486.03.002 20.923h5.91V68.773H49.61Z"/><path fill="#77B900" d="M19.013 27.113s7.603-11.219 22.785-12.38v-4.07C24.982 12.013 10.42 26.256 10.42 26.256s8.248 23.842 31.378 26.025v-4.326C24.824 45.82 19.013 27.113 19.013 27.113ZM41.798 39.35v3.963c-12.829-2.288-16.39-15.623-16.39-15.623s6.16-6.823 16.39-7.93v4.348c-.008 0-.013-.003-.02-.003-5.369-.644-9.563 4.372-9.563 4.372s2.35 8.443 9.583 10.873Zm0-36.195v7.507c.494-.037.987-.07 1.484-.087 19.117-.644 31.574 15.68 31.574 15.68S60.549 43.653 45.644 43.653c-1.366 0-2.645-.127-3.846-.34v4.642a25.34 25.34 0 0 0 3.203.207c13.87 0 23.901-7.084 33.614-15.468 1.61 1.29 8.203 4.428 9.558 5.8-9.235 7.733-30.757 13.965-42.96 13.965-1.175 0-2.305-.071-3.415-.178v6.523h52.72V3.156h-52.72Zm0 16.605v-5.027a38.9 38.9 0 0 1 1.484-.077c13.747-.431 22.766 11.814 22.766 11.814S56.307 40 45.862 40c-1.504 0-2.851-.242-4.064-.65V24.108c5.352.647 6.429 3.011 9.646 8.375l7.157-6.034s-5.224-6.851-14.03-6.851c-.958 0-1.874.067-2.773.163"/></svg>
